fa/svgs/regular/object-ungroup.svg

<svg xmlns="http://www.w3.org/2000/svg" viewBox="0 0 640 512"><!--! Font Awesome Free 6.1.1 by @fontawesome - https://fontawesome.com License - https://fontawesome.com/license/free (Icons: CC BY 4.0, Fonts: SIL OFL 1.1, Code: MIT License) Copyright 2022 Fonticons, Inc.--><path d="M64 0c26.86 0 49.9 16.55 59.3 40h201.4c9.4-23.45 32.4-40 59.3-40 35.3 0 64 28.65 64 64 0 26.86-16.5 49.9-40 59.3v105.4c23.5 9.4 40 32.4 40 59.3 0 35.3-28.7 64-64 64-26.9 0-49.9-16.5-59.3-40H123.3c-9.4 23.5-32.44 40-59.3 40-35.35 0-64-28.7-64-64 0-26.9 16.55-49.9 40-59.3V123.3C16.55 113.9 0 90.86 0 64 0 28.65 28.65 0 64 0zm0 80c8.84 0 16-7.16 16-16 0-7.9-5.72-14.46-13.25-15.76-.89-.16-1.81-.24-2.75-.24-8.84 0-16 7.16-16 16v.21c.01.86.09 1.71.24 2.54C49.54 74.28 56.1 80 64 80zm320-32c-.9 0-1.9.08-2.8.24C373.7 49.54 368 56.1 368 64c0 8.84 7.2 16 16 16 7.9 0 14.5-5.72 15.8-13.25.1-.89.2-1.81.2-2.75 0-8.84-7.2-16-16-16zm-59.3 40H123.3c-6.4 16-19.3 28.9-35.3 35.3v105.4c16 6.4 28.9 18.4 35.3 35.3h201.4c6.4-16.9 18.4-28.9 35.3-35.3V123.3c-16.9-6.4-28.9-19.3-35.3-35.3zM400 288c0-.9-.1-1.9-.2-2.8-1.3-7.5-7.9-13.2-15.8-13.2-8.8 0-16 7.2-16 16 0 7.9 5.7 14.5 13.2 15.8.9.1 1.9.2 2.8.2 8.8 0 16-7.2 16-16zM64 272c-7.9 0-14.46 5.7-15.76 13.2-.16.9-.24 1.9-.24 2.8 0 8.8 7.16 16 16 16l.22-.9c.86 0 1.71.8 2.53.7C74.28 302.5 80 295.9 80 288c0-8.8-7.16-16-16-16zm407.3-24c-5.5-12.1-13.5-22.8-23.3-31.6V200h68.7c9.4-23.5 32.4-40 59.3-40 35.3 0 64 28.7 64 64 0 26.9-16.5 49.9-40 59.3v105.4c23.5 9.4 40 32.4 40 59.3 0 35.3-28.7 64-64 64-26.9 0-49.9-16.5-59.3-40H315.3c-9.4 23.5-32.4 40-59.3 40-35.3 0-64-28.7-64-64 0-26.9 16.5-49.9 40-59.3V352h48v36.7c16 6.4 28.9 18.4 35.3 35.3h201.4c6.4-16.9 18.4-28.9 35.3-35.3V283.3c-16.9-6.4-28.9-19.3-35.3-35.3h-45.4zM592 224c0-8.8-7.2-16-16-16-.9 0-1.9.1-2.8.2-7.5 1.3-13.2 7.9-13.2 15.8 0 8.8 7.2 16 16 16 7.9 0 14.5-5.7 15.8-13.2.1-.9.2-1.9.2-2.8zM240 448c0 8.8 7.2 16 16 16 .9 0 1.9-.1 2.8-.2 7.5-1.3 13.2-7.9 13.2-15.8 0-8.8-7.2-16-16-16-7.9 0-14.5 5.7-15.8 13.2-.1.9-.2 1.9-.2 2.8zm333.2 15.8c.9.1 1.9.2 2.8.2 8.8 0 16-7.2 16-16 0-.9-.1-1.8-.2-2.7v-.1c-1.3-7.5-7.9-13.2-15.8-13.2-8.8 0-16 7.2-16 16 0 7.9 5.7 14.5 13.2 15.8z"/></svg>

<svg xmlns="http://www.w3.org/2000/svg" viewBox="0 0 640 512"><!--! Font Awesome Free 6.2.1 by @fontawesome - https://fontawesome.com License - https://fontawesome.com/license/free (Icons: CC BY 4.0, Fonts: SIL OFL 1.1, Code: MIT License) Copyright 2022 Fonticons, Inc. --><path d="M64 0C90.86 0 113.9 16.55 123.3 40H324.7C334.1 16.55 357.1 0 384 0C419.3 0 448 28.65 448 64C448 90.86 431.5 113.9 408 123.3V228.7C431.5 238.1 448 261.1 448 288C448 323.3 419.3 352 384 352C357.1 352 334.1 335.5 324.7 312H123.3C113.9 335.5 90.86 352 64 352C28.65 352 0 323.3 0 288C0 261.1 16.55 238.1 40 228.7V123.3C16.55 113.9 0 90.86 0 64C0 28.65 28.65 0 64 0V0zM64 80C72.84 80 80 72.84 80 64C80 56.1 74.28 49.54 66.75 48.24C65.86 48.08 64.94 48 64 48C55.16 48 48 55.16 48 64C48 64.07 48 64.14 48 64.21C48.01 65.07 48.09 65.92 48.24 66.75C49.54 74.28 56.1 80 64 80zM384 48C383.1 48 382.1 48.08 381.2 48.24C373.7 49.54 368 56.1 368 64C368 72.84 375.2 80 384 80C391.9 80 398.5 74.28 399.8 66.75C399.9 65.86 400 64.94 400 64C400 55.16 392.8 48 384 48V48zM324.7 88H123.3C116.9 104 104 116.9 88 123.3V228.7C104 235.1 116.9 247.1 123.3 264H324.7C331.1 247.1 343.1 235.1 360 228.7V123.3C343.1 116.9 331.1 104 324.7 88zM400 288C400 287.1 399.9 286.1 399.8 285.2C398.5 277.7 391.9 272 384 272C375.2 272 368 279.2 368 288C368 295.9 373.7 302.5 381.2 303.8C382.1 303.9 383.1 304 384 304C392.8 304 400 296.8 400 288zM64 272C56.1 272 49.54 277.7 48.24 285.2C48.08 286.1 48 287.1 48 288C48 296.8 55.16 304 64 304L64.22 303.1C65.08 303.1 65.93 303.9 66.75 303.8C74.28 302.5 80 295.9 80 288C80 279.2 72.84 272 64 272zM471.3 248C465.8 235.9 457.8 225.2 448 216.4V200H516.7C526.1 176.5 549.1 160 576 160C611.3 160 640 188.7 640 224C640 250.9 623.5 273.9 600 283.3V388.7C623.5 398.1 640 421.1 640 448C640 483.3 611.3 512 576 512C549.1 512 526.1 495.5 516.7 472H315.3C305.9 495.5 282.9 512 256 512C220.7 512 192 483.3 192 448C192 421.1 208.5 398.1 232 388.7V352H280V388.7C296 395.1 308.9 407.1 315.3 424H516.7C523.1 407.1 535.1 395.1 552 388.7V283.3C535.1 276.9 523.1 264 516.7 248H471.3zM592 224C592 215.2 584.8 208 576 208C575.1 208 574.1 208.1 573.2 208.2C565.7 209.5 560 216.1 560 224C560 232.8 567.2 240 576 240C583.9 240 590.5 234.3 591.8 226.8C591.9 225.9 592 224.9 592 224zM240 448C240 456.8 247.2 464 256 464C256.9 464 257.9 463.9 258.8 463.8C266.3 462.5 272 455.9 272 448C272 439.2 264.8 432 256 432C248.1 432 241.5 437.7 240.2 445.2C240.1 446.1 240 447.1 240 448zM573.2 463.8C574.1 463.9 575.1 464 576 464C584.8 464 592 456.8 592 448C592 447.1 591.9 446.2 591.8 445.3L591.8 445.2C590.5 437.7 583.9 432 576 432C567.2 432 560 439.2 560 448C560 455.9 565.7 462.5 573.2 463.8V463.8z"/></svg>
